X:505
T:Blarney Pilgrim, The
M:6/8
R:Jig
Z:Walsh's collection
D:asin=B000000E9C(El McMeen: Irish Guitar Encores)
D:asin=B000000MUO(John Renbourn, Robin Williamson: Wheel Of Fortune)
D:anop=B000005CRX(U2: Andy Irvin &amp; Paul Brady)
K:G
~D3 DEG|A3 z2 c|BAG AGE|GEA GED|~D3 DEG|A3 z2 c |BAG AGE|GED D2z:|\
ded dBG|AGA BGE|ded dBG|ABA GBd|g2e dBG|AGA BGD|~B3 AGE|~G3 G2 z:|\
ADD BDD|A2D ABc|BAG AGE|GEA GED|ADD BDD|A2D ABc|BAG AGE|GED D2 z:|
